X:680
L:1/8
Q:1/4=120
M:3/4
K:Ddor
"^Rather Slow" D/E/F/G/ | A2 D2 D2 | E2 D2 D2 | A2 D2 D2 | E3 D CA, | A2 D2 D2 | A3 B AG | 
 E2 D2 D2 | D4 :| D/E/F/G/A/B/c/ | d6 | e6 | f2 e2 d2 | c2 A2 G2 | d2 dc d2 | e2 ed e2 | f2 e2 dc | 
 d4 eg | f3 e d2 | e2 d2 c2 | d3 c A2 | d2 f2 ed | c2 A2 G2 | A3 BAG | E2 D2 D2 | D4 ||

